X:1
T: All Covered with Moss
C:
R:Jig
Q:180
K:Em
M:6/8
L:1/16
c4E2 E2D2E2|G2E2D2 D2E2D2|c4E2 E2D2E2|c2B2c2 d2c2A2|G2E2D2 D2E2D2|D2E2D2 D2E2F2|E2D2E2 G2A2B2|c6 B2A2G2|
c4E2 E2D2E2|G2E2D2 D2E2D2|c4E2 E2D2E2|c2B2c2 d2c2A2|G2E2D2 D2E2D2|D2E2D2 D2E2F2|E2D2E2 G2A2B2|c6 B2A2B2|
G4A2 B2G2B2|A2G2A2 B2G2E2|G4A2 B2G2B2|c6 B2A2B2|G4A2 B2G2B2|A2G2A2 B2G2B2|d2e2d2 d2c2B2|c6 B4A2|
G4A2 B2G2B2|A2G2A2 B2G2E2|G4A2 B2G2B2|c6 B2A2B2|G2B2d2 g2d2B2|d2e2d2 d2B2A2|G2E2D2 G2A2B2|c2d2c2 B2A2G2||
